svgs/duotone/book-arrow-up.svg

<svg xmlns="http://www.w3.org/2000/svg" viewBox="0 0 448 512"><!-- Font Awesome Pro 6.0.0-alpha2 by @fontawesome - https://fontawesome.com License - https://fontawesome.com/license (Commercial License) --><defs><style>.fa-secondary{opacity:.4}</style></defs><path d="M64 416C64 433.672 78.328 448 96 448H216V384H96C78.328 384 64 398.326 64 416ZM264 384V448H416V384H264Z" class="fa-secondary"/><path d="M424 448H264V512H424C437.254 512 448 501.254 448 488V472C448 458.742 437.254 448 424 448ZM416 0H96C42.98 0 0 42.98 0 96V416C0 469.02 42.98 512 96 512H216V448H96C78.328 448 64 433.672 64 416S78.328 384 96 384H216V209.938L176.969 248.969C167.594 258.344 152.406 258.344 143.031 248.969S133.656 224.406 143.031 215.031L223.031 135.031C232.406 125.656 247.594 125.656 256.969 135.031L336.969 215.031C346.344 224.406 346.344 239.594 336.969 248.969C332.281 253.656 326.156 256 320 256S307.719 253.656 303.031 248.969L264 209.938V384H424C437.254 384 448 373.254 448 360V32C448 14.328 433.672 0 416 0Z" class="fa-primary"/></svg>

<svg xmlns="http://www.w3.org/2000/svg" viewBox="0 0 448 512"><!--! Font Awesome Pro 6.3.0 by @fontawesome - https://fontawesome.com License - https://fontawesome.com/license (Commercial License) Copyright 2023 Fonticons, Inc. --><defs><style>.fa-secondary{opacity:.4}</style></defs><path class="fa-primary" d="M416 448h-152v64H416c17.67 0 32-14.33 32-31.1C448 462.3 433.7 448 416 448zM400 0H96C42.98 0 0 42.98 0 96v320c0 53.02 42.98 96 96 96h120v-64H96c-17.67 0-32-14.33-32-32s14.33-32 32-32h120V209.9L176.1 248.1c-9.375 9.375-24.56 9.375-33.94 0s-9.375-24.56 0-33.94l80-80c9.372-9.372 24.57-9.372 33.94 0l80 80c9.375 9.375 9.375 24.56 0 33.94C332.3 253.7 326.2 256 320 256s-12.28-2.344-16.97-7.031L264 209.9V384h136c26.51 0 48-21.49 48-48v-288C448 21.49 426.5 0 400 0z"/><path class="fa-secondary" d="M64 416c0 17.67 14.33 32 32 32h120v-64H96C78.33 384 64 398.3 64 416zM264 384v64H416v-64H264z"/></svg>
